X: 441
T: Into the drink by Momus
T: (abc by Comyn)
M: 6/8
L: 1/8
R: reel
K: D
|:e|e2f gag |fede2 e|e2fgab|d'4 z e|
e2f gag|fede2 e|e2gfed|e4 z:|
